!!!COM: Debussy, (Achille-)Claude
!!!OTL: Pelléas et Mélisande (Pelléas and Mélisande), Lyrical Drama in Five Acts
!!!OMV: Act III, Scene 3: Une Terrasse au sortir des souterrains (A Terrace Coming Out of the Underground)
!!!example: 159
!!!work: Deb-18
**kern	**dynam	**kern	**dynam	**kern	**dynam	**kern	**dynam	**kern	**dynam	**kern	**kern	**kern	**kern	**dynam	**kern	**dynam	**kern	**dynam	**kern	**dynam	**kern	**dynam	**kern	**dynam	**kern	**dynam	**kern	**dynam
*part15	*part15	*part14	*part14	*part13	*part13	*part12	*part12	*part11	*part11	*part10	*part9	*part9	*part8	*part8	*part7	*part7	*part6	*part6	*part5	*part5	*part4	*part4	*part3	*part3	*part2	*part2	*part1	*part1
*staff16	*	*staff15	*	*staff14	*	*staff13	*	*staff12	*	*staff11	*staff10	*staff9	*staff8	*	*staff7	*	*staff6	*	*staff5	*	*staff4	*	*staff3	*	*staff2	*	*staff1	*
*I"Violoncello	*	*I"Viola	*	*I"Violin II	*	*I"Violin I	*	*I"Violin I	*	*I"Treble Solo	*I"Harp	*	*I"Horn in F	*	*I"Horn in F	*	*I"Bassoon	*	*I"Clarinet in Bb	*	*I"Cor Anglais	*	*I"Oboe	*	*I"Flute	*	*I"Flute	*
*I'Vc.	*	*I'Vla.	*	*I'Vln. II	*	*I'Vln. I	*	*I'Vln. I	*	*I'Tr. Solo	*I'Hp.	*	*I'Hn.	*	*I'Hn.	*	*I'Bsn.	*	*I'Cl.	*	*I'C. A.	*	*I'Ob.	*	*I'Fl.	*	*I'Fl.	*
*clefF4	*	*clefC3	*	*clefG2	*	*clefG2	*	*clefG2	*	*clefG2	*clefF4	*clefG2	*clefG2	*	*clefG2	*	*clefF4	*	*clefG2	*	*clefG2	*	*clefG2	*	*clefG2	*	*clefG2	*
*k[f#c#g#d#a#e#]	*	*k[f#c#g#d#a#e#]	*	*k[f#c#g#d#a#e#]	*	*k[f#c#g#d#a#e#]	*	*k[f#c#g#d#a#e#]	*	*k[f#c#g#d#a#e#]	*k[f#c#g#d#a#e#]	*k[f#c#g#d#a#e#]	*	*	*	*	*k[f#c#g#d#a#e#]	*	*k[f#c#g#d#a#e#]	*	*k[f#c#g#d#a#e#]	*	*k[f#c#g#d#a#e#]	*	*k[f#c#g#d#a#e#]	*	*k[f#c#g#d#a#e#]	*
*F#:	*	*F#:	*	*F#:	*	*F#:	*	*F#:	*	*F#:	*F#:	*F#:	*	*	*	*	*F#:	*	*F#:	*	*F#:	*	*F#:	*	*F#:	*	*F#:	*
*M6/4	*	*M6/4	*	*M6/4	*	*M6/4	*	*M6/4	*	*M6/4	*M6/4	*M6/4	*M6/4	*	*M6/4	*	*M6/4	*	*M6/4	*	*M6/4	*	*M6/4	*	*M6/4	*	*M6/4	*
=357	=	=	=	=	=	=	=	=	=	=	=	=	=	=	=	=	=	=	=	=	=	=	=	=	=	=	=	=
4FF#	p	4g#	p	4en 4a#	p	4een	p	4aa# 4eeen	p	2r	(8GG#XL	4r	4r	.	1.r	.	4FF# 4An 4c#	p	4d##X 4dd##X	p	(1.d##X	p	4g#	p	8g#'L	p	8g# 8cc#	p
.	.	.	.	.	.	.	.	.	.	.	8AA#J	.	.	.	.	.	.	.	.	.	.	.	.	.	8g#'	.	8r	.
4r	.	4r	.	4r	.	4r	.	4r	.	.	4r	8g#L	[2f#X^	>	.	.	4r	.	4r	.	.	.	4cc#	.	8cc#'	.	4r	.
.	.	.	.	.	.	.	.	.	.	.	.	8a#	.	.	.	.	.	.	.	.	.	.	.	.	8cc#'	.	.	.
4r	.	4r	.	4r	.	4r	.	4r	.	4r	4r	8cc#	.	.	.	.	4r	.	4r	.	.	.	4ff#	.	8ff#'	.	4r	.
.	.	.	.	.	.	.	.	.	.	.	.	8a#J	.	.	.	.	.	.	.	.	.	.	.	.	8ff#'J	.	.	.
2.r	.	2.r	.	2.r	.	2.r	.	2.r	.	4a#	4r	8g#L	2.f#_	]	.	.	2.r	.	2.r	.	.	.	4cc#	.	8cc#'L	.	2.r	.
.	.	.	.	.	.	.	.	.	.	.	.	8f#J	.	.	.	.	.	.	.	.	.	.	.	.	8cc#'	.	.	.
.	.	.	.	.	.	.	.	.	.	4r	8GG#XL	4r	.	.	.	.	.	.	.	.	.	.	4g#	.	8g#'	.	.	.
.	.	.	.	.	.	.	.	.	.	.	8AA#J	.	.	.	.	.	.	.	.	.	.	.	.	.	8g#'	.	.	.
.	.	.	.	.	.	.	.	.	.	4r	4r	8g#L	.	.	.	.	.	.	.	.	.	.	4cc#	.	8cc#'	.	.	.
.	.	.	.	.	.	.	.	.	.	.	.	8a#J	.	.	.	.	.	.	.	.	.	.	.	.	8cc#'J	.	.	.
=358	=358	=358	=358	=358	=358	=358	=358	=358	=358	=358	=358	=358	=358	=358	=358	=358	=358	=358	=358	=358	=358	=358	=358	=358	=358	=358	=358	=358
!	!	!	!	!	!	!LO:TX:t=pizz.	!	!	!	!	!	!	!	!	!	!	!	!	!	!	!	!	!	!	!	!	!	!
1.r	.	1.r	.	1.r	.	4a#	pp	8aa#'L	pp	2r	(8FF#L	4r	1.f#]	.	(4g#X~	<	1.r	.	1.r	.	1.d#X)	.	1.a#	.	8a#'L	.	1.r	.
.	.	.	.	.	.	.	.	8aa#'	.	.	8GG#J	.	.	.	.	.	.	.	.	.	.	.	.	.	8a#'J	.	.	.
.	.	.	.	.	.	4dd#	.	8ddd#'	.	.	4r	8g#L	.	.	[2a#X	[	.	.	.	.	.	.	.	.	4r	.	.	.
.	.	.	.	.	.	.	.	8ddd#'	.	.	.	8a#	.	.	.	.	.	.	.	.	.	.	.	.	.	.	.	.
.	.	.	.	.	.	4gg#	.	8ggg#'	.	4a#	4r	8cc#	.	.	.	.	.	.	.	.	.	.	.	.	4r	.	.	.
.	.	.	.	.	.	.	.	8ggg#'J	.	.	.	8a#J	.	.	.	.	.	.	.	.	.	.	.	.	.	.	.	.
.	.	.	.	.	.	4dd#	.	8ddd#'L	.	4a#	4r	8g#L	.	.	2.a#])	[[	.	.	.	.	.	.	.	.	2.r	.	.	.
.	.	.	.	.	.	.	.	8ddd#'	.	.	.	8f#J	.	.	.	.	.	.	.	.	.	.	.	.	.	.	.	.
.	.	.	.	.	.	4a#	.	8aa#'	.	4a#	8FF#	8r	.	.	.	.	.	.	.	.	.	.	.	.	.	.	.	.
.	.	.	.	.	.	.	.	8aa#'	.	.	8r	8f#L	.	.	.	.	.	.	.	.	.	.	.	.	.	.	.	.
.	.	.	.	.	.	4dd#	.	8ddd#'	.	4a#	4r	8g#	.	.	.	.	.	.	.	.	.	.	.	.	.	.	.	.
.	.	.	.	.	.	.	.	8ddd#'J	.	.	.	8a#J	.	.	.	.	.	.	.	.	.	.	.	.	.	.	.	.
=359	=359	=359	=359	=359	=359	=359	=359	=359	=359	=359	=359	=359	=359	=359	=359	=359	=359	=359	=359	=359	=359	=359	=359	=359	=359	=359	=359	=359
!!pagebreak:original
1.r	.	1.r	.	1.r	.	1.r	.	1.r	.	16%3f#L	(8GG#XL	4r	1.r	.	1.r	[	1.r	.	1.r	.	1.r	.	4g#	p	8g#'L	p	(1.e#	p
.	.	.	.	.	.	.	.	.	.	.	8AA#J	.	.	.	.	.	.	.	.	.	.	.	.	.	8g#'	.	.	.
.	.	.	.	.	.	.	.	.	.	16%3f#	.	.	.	.	.	.	.	.	.	.	.	.	.	.	.	.	.	.
.	.	.	.	.	.	.	.	.	.	.	4r	8g#L	.	.	.	.	.	.	.	.	.	.	4cc#	.	8cc#'	.	.	.
.	.	.	.	.	.	.	.	.	.	16%3f#	.	8a#	.	.	.	.	.	.	.	.	.	.	.	.	8cc#'	.	.	.
.	.	.	.	.	.	.	.	.	.	.	4r	8cc#	.	.	.	.	.	.	.	.	.	.	4ff#	.	8ff#'	.	.	.
.	.	.	.	.	.	.	.	.	.	16%3f#J	.	.	.	.	.	.	.	.	.	.	.	.	.	.	.	.	.	.
.	.	.	.	.	.	.	.	.	.	.	.	8a#J	.	.	.	.	.	.	.	.	.	.	.	.	8ff#'J	.	.	.
.	.	.	.	.	.	.	.	.	.	16%3a#L	4r	8g#L	.	.	.	.	.	.	.	.	.	.	4cc#	.	8cc#'L	.	.	.
.	.	.	.	.	.	.	.	.	.	.	.	8f#J	.	.	.	.	.	.	.	.	.	.	.	.	8cc#'	.	.	.
.	.	.	.	.	.	.	.	.	.	16%3a#	.	.	.	.	.	.	.	.	.	.	.	.	.	.	.	.	.	.
.	.	.	.	.	.	.	.	.	.	.	8GG#XL	4r	.	.	.	.	.	.	.	.	.	.	4g#	.	8g#'	.	.	.
.	.	.	.	.	.	.	.	.	.	16%3a#	8AA#J	.	.	.	.	.	.	.	.	.	.	.	.	.	8g#'	.	.	.
.	.	.	.	.	.	.	.	.	.	.	4r	8g#L	.	.	.	.	.	.	.	.	.	.	4cc#	.	8cc#'	.	.	.
.	.	.	.	.	.	.	.	.	.	16%3a#J	.	.	.	.	.	.	.	.	.	.	.	.	.	.	.	.	.	.
.	.	.	.	.	.	.	.	.	.	.	.	8a#J	.	.	.	.	.	.	.	.	.	.	.	.	8cc#'J	.	.	.
=360	=360	=360	=360	=360	=360	=360	=360	=360	=360	=360	=360	=360	=360	=360	=360	=360	=360	=360	=360	=360	=360	=360	=360	=360	=360	=360	=360	=360
!	!	!	!	!	!	!LO:TX:t=pizz.	!	!	!	!	!	!	!	!	!	!	!	!	!	!	!	!	!	!	!	!	!	!
1.r	.	1.r	.	1.r	.	4a#	pp	8aa#'L	pp	2.cc#	(8FF#L	4r	1.r	.	1.r	.	1.r	.	1.r	.	1.r	.	1.a#	.	8a#'L	.	1.d#)	.
.	.	.	.	.	.	.	.	8aa#'	.	.	8GG#J	.	.	.	.	.	.	.	.	.	.	.	.	.	8a#'J	.	.	.
.	.	.	.	.	.	4dd#	.	8ddd#'	.	.	4r	8g#L	.	.	.	.	.	.	.	.	.	.	.	.	4r	.	.	.
.	.	.	.	.	.	.	.	8ddd#'	.	.	.	8a#	.	.	.	.	.	.	.	.	.	.	.	.	.	.	.	.
.	.	.	.	.	.	4gg#	.	8ggg#'	.	.	4r	8cc#	.	.	.	.	.	.	.	.	.	.	.	.	4r	.	.	.
.	.	.	.	.	.	.	.	8ggg#'J	.	.	.	8a#J	.	.	.	.	.	.	.	.	.	.	.	.	.	.	.	.
.	.	.	.	.	.	4dd#	.	8ddd#'L	.	4.cc#	4r	8g#L	.	.	.	.	.	.	.	.	.	.	.	.	2.r	.	.	.
.	.	.	.	.	.	.	.	8ddd#'	.	.	.	8f#J	.	.	.	.	.	.	.	.	.	.	.	.	.	.	.	.
.	.	.	.	.	.	4a#	.	8aa#'	.	.	8FF#	8r	.	.	.	.	.	.	.	.	.	.	.	.	.	.	.	.
.	.	.	.	.	.	.	.	8aa#'	.	4.cc#	8r	8f#L	.	.	.	.	.	.	.	.	.	.	.	.	.	.	.	.
.	.	.	.	.	.	4dd#	.	8ddd#'	.	.	4r	8g#	.	.	.	.	.	.	.	.	.	.	.	.	.	.	.	.
.	.	.	.	.	.	.	.	8ddd#'J	.	.	.	8a#J	.	.	.	.	.	.	.	.	.	.	.	.	.	.	.	.
=361	=361	=361	=361	=361	=361	=361	=361	=361	=361	=361	=361	=361	=361	=361	=361	=361	=361	=361	=361	=361	=361	=361	=361	=361	=361	=361	=361	=361
1.r	.	1.r	.	1.r	.	1.r	.	1.r	.	4.a#	(8EE#L	4r	4r	.	1.r	.	1.r	.	1.r	.	(1.c#	p	4a#	.	8a#'L	.	(1.c#	.
.	.	.	.	.	.	.	.	.	.	.	8AA#J	.	.	.	.	.	.	.	.	.	.	.	.	.	8a#'	.	.	.
.	.	.	.	.	.	.	.	.	.	.	4r	8g#L	[2f#X^	>	.	.	.	.	.	.	.	.	4dd#	.	8dd#'	.	.	.
.	.	.	.	.	.	.	.	.	.	4.a#	.	8a#	.	.	.	.	.	.	.	.	.	.	.	.	8dd#'	.	.	.
.	.	.	.	.	.	.	.	.	.	.	4r	8cc#	.	.	.	.	.	.	.	.	.	.	4gg#	.	8gg#'	.	.	.
.	.	.	.	.	.	.	.	.	.	.	.	8a#J	.	.	.	.	.	.	.	.	.	.	.	.	8gg#'J	.	.	.
.	.	.	.	.	.	.	.	.	.	4.a#	4r	8g#L	2.f#_	]	.	.	.	.	.	.	.	.	4dd#	.	8dd#'L	.	.	.
.	.	.	.	.	.	.	.	.	.	.	.	8f#J	.	.	.	.	.	.	.	.	.	.	.	.	8dd#'	.	.	.
.	.	.	.	.	.	.	.	.	.	.	8EE#	8r	.	.	.	.	.	.	.	.	.	.	4a#	.	8a#'	.	.	.
.	.	.	.	.	.	.	.	.	.	4.a#	8r	8f#L	.	.	.	.	.	.	.	.	.	.	.	.	8a#'	.	.	.
.	.	.	.	.	.	.	.	.	.	.	4r	8g#	.	.	.	.	.	.	.	.	.	.	4dd#	.	8dd#'	.	.	.
.	.	.	.	.	.	.	.	.	.	.	.	8a#J	.	.	.	.	.	.	.	.	.	.	.	.	8dd#'J	.	.	.
=362	=362	=362	=362	=362	=362	=362	=362	=362	=362	=362	=362	=362	=362	=362	=362	=362	=362	=362	=362	=362	=362	=362	=362	=362	=362	=362	=362	=362
!	!	!	!	!	!	!LO:TX:t=pizz.	!	!	!	!	!	!	!	!	!LO:TX:t=muted	!	!	!	!	!	!	!	!	!	!	!	!	!
1.r	.	1.r	.	1.r	.	4a#	pp	8aa#'L	pp	4b#X	(8DD#XL	4r	2.f#_	.	(4g#X~	<	1.r	.	1.r	.	1.B#X)	.	1.a#	.	8a#'L	.	1.B#X)	.
.	.	.	.	.	.	.	.	8aa#'	.	.	8AA#J	.	.	.	.	.	.	.	.	.	.	.	.	.	8a#'J	.	.	.
.	.	.	.	.	.	4dd#	.	8ddd#'	.	4b#	4r	8g#L	.	.	[2a#X~	[	.	.	.	.	.	.	.	.	4r	.	.	.
.	.	.	.	.	.	.	.	8ddd#'	.	.	.	8a#	.	.	.	.	.	.	.	.	.	.	.	.	.	.	.	.
.	.	.	.	.	.	4gg#	.	8ggg#'	.	4b#	4r	8b#X	.	.	.	.	.	.	.	.	.	.	.	.	4r	.	.	.
.	.	.	.	.	.	.	.	8ggg#'J	.	.	.	8a#J	.	.	.	.	.	.	.	.	.	.	.	.	.	.	.	.
.	.	.	.	.	.	4dd#	.	8ddd#'L	.	4g#	8r	8g#	4f#]	.	2.a#])	[[	.	.	.	.	.	.	.	.	2.r	.	.	.
.	.	.	.	.	.	.	.	8ddd#'	.	.	8AA#L	8r	.	.	.	.	.	.	.	.	.	.	.	.	.	.	.	.
.	.	.	.	.	.	4a#	.	8aa#'	.	4g#	8DD#	8r	2f#X~	.	.	.	.	.	.	.	.	.	.	.	.	.	.	.
.	.	.	.	.	.	.	.	8aa#'	.	.	8AA#J	8r	.	.	.	.	.	.	.	.	.	.	.	.	.	.	.	.
.	.	.	.	.	.	4dd#	.	8ddd#'	.	4g#	4r	8g#L	.	.	.	.	.	.	.	.	.	.	.	.	.	.	.	.
.	.	.	.	.	.	.	.	8ddd#'J	.	.	.	8a#J	.	.	.	.	.	.	.	.	.	.	.	.	.	.	.	.
=363	=363	=363	=363	=363	=363	=363	=363	=363	=363	=363	=363	=363	=363	=363	=363	=363	=363	=363	=363	=363	=363	=363	=363	=363	=363	=363	=363	=363
1.r	.	1.r	.	1.r	.	1.r	.	1.r	.	2.f#	8EE#L	1.r	2.f#X	.	4g#X	[	1.r	.	1.r	.	1.c#	.	4a#	.	8a#'L	.	1.c#	.
.	.	.	.	.	.	.	.	.	.	.	8AA#J	.	.	.	.	.	.	.	.	.	.	.	.	.	8a#'J	.	.	.
.	.	.	.	.	.	.	.	.	.	.	4r	.	.	.	4r	[	.	.	.	.	.	.	4r	.	4r	.	.	.
.	.	.	.	.	.	.	.	.	.	.	4r	.	.	.	4r	.	.	.	.	.	.	.	4r	.	4r	.	.	.
.	.	.	.	.	.	.	.	.	.	2.r	2.r	.	2.r	.	2.r	.	.	.	.	.	.	.	2.r	.	2.r	.	.	.
==	==	==	==	==	==	==	==	==	==	==	==	==	==	==	==	==	==	==	==	==	==	==	==	==	==	==	==	==
*-	*-	*-	*-	*-	*-	*-	*-	*-	*-	*-	*-	*-	*-	*-	*-	*-	*-	*-	*-	*-	*-	*-	*-	*-	*-	*-	*-	*-
!!!CDT: 1862/08/22-1918/03/25
!!!CBL: St Germain-en-Laye, France
!!!CDL: Paris, France
!!!CNT: French
!!!AGN: Stage; Opera
!!!MCN: Messager, André
!!!MDT: 1902/04/30
!!!MGN: Orchestre de l'Opéra Comique
!!!MLC: Paris, France
!!!MPD: 1902
!!!MPN: Garden, Mary; Périer, Jean
!!!ODT: 1893 (rev. 1902)
!!!PDT: 1904
!!!excerpt-start-measure: 357
!!!excerpt-end-measure: 363
!!!excerpt-start-time: 1:04
!!!excerpt-end-time: 1:17
!!!EEV: 2020/01/17
!!!system-decoration: [(s1,s2,s3,s4,s5,s6)][(s7,s8)]{(s9,s10)}s11[(s12,s13,s14,s15,s16)]
!!!ONB: Converted from MusicXML on 2020/01/17
